MODULE Module1
    PERS tooldata boligrafo2:=[TRUE,[[0,0,137],[1,0,0,0]],[0.25,[0,0,1],[1,0,0,0],0,0,0]];
    CONST robtarget inicio:=[[447.405665295,0,546.05],[0.5,0,0.866025404,0],[0,0,0,0],[9E9,9E9,9E9,9E9,9E9,9E9]];
    CONST robtarget P1:=[[300.0,-100.0,-22.5],[0.004644196,-0.156946196,-0.987595959,-0.000738049],[-1,0,-1,0],[9E9,9E9,9E9,9E9,9E9,9E9]];
! Se define la variable int_mov_stop para usarla con la interrupción  VAR intum int_move_stop
    VAR intnum int_move_stop;
    

    PROC track_1()
    VAR num p0:=0; ! Altura para simulación. Si p0=0 => toca papel                                                                        
                                                                                                                                           
    MoveL [[390.820,-37.295,-24.300+p0],[0.123,0.660,-0.733,0.110],[-1,0,-1,0],[9E9,9E9,9E9,9E9,9E9,9E9]],v10,fine,boligrafo2\WObj:=wobj0;
    MoveL [[389.715,-37.295,-24.300+p0],[0.107,0.681,-0.717,0.102],[-1,0,-1,0],[9E9,9E9,9E9,9E9,9E9,9E9]],v10,fine,boligrafo2\WObj:=wobj0;
    MoveL [[388.745,-36.900,-24.300+p0],[0.101,0.682,-0.718,0.096],[-1,0,-1,0],[9E9,9E9,9E9,9E9,9E9,9E9]],v10,fine,boligrafo2\WObj:=wobj0;
    MoveL [[387.735,-36.315,-24.300+p0],[0.101,0.682,-0.718,0.096],[-1,0,-1,0],[9E9,9E9,9E9,9E9,9E9,9E9]],v10,fine,boligrafo2\WObj:=wobj0;
    MoveL [[386.820,-35.620,-24.300+p0],[0.107,0.681,-0.717,0.102],[-1,0,-1,0],[9E9,9E9,9E9,9E9,9E9,9E9]],v10,fine,boligrafo2\WObj:=wobj0;
    MoveL [[385.975,-34.725,-24.300+p0],[0.107,0.681,-0.717,0.102],[-1,0,-1,0],[9E9,9E9,9E9,9E9,9E9,9E9]],v10,fine,boligrafo2\WObj:=wobj0;
    MoveL [[385.205,-33.820,-24.300+p0],[0.101,0.682,-0.718,0.096],[-1,0,-1,0],[9E9,9E9,9E9,9E9,9E9,9E9]],v10,fine,boligrafo2\WObj:=wobj0;
    MoveL [[384.360,-32.735,-24.300+p0],[0.101,0.682,-0.718,0.096],[-1,0,-1,0],[9E9,9E9,9E9,9E9,9E9,9E9]],v10,fine,boligrafo2\WObj:=wobj0;
    MoveL [[383.595,-31.595,-24.300+p0],[0.095,0.676,-0.725,0.089],[-1,0,-1,0],[9E9,9E9,9E9,9E9,9E9,9E9]],v10,fine,boligrafo2\WObj:=wobj0;
    MoveL [[383.020,-30.700,-24.300+p0],[0.095,0.676,-0.725,0.089],[-1,0,-1,0],[9E9,9E9,9E9,9E9,9E9,9E9]],v10,fine,boligrafo2\WObj:=wobj0;
    MoveL [[382.465,-29.795,-24.300+p0],[0.098,0.657,-0.743,0.086],[-1,0,-1,0],[9E9,9E9,9E9,9E9,9E9,9E9]],v10,fine,boligrafo2\WObj:=wobj0;
    MoveL [[381.805,-28.530,-24.300+p0],[0.092,0.651,-0.749,0.080],[-1,0,-1,0],[9E9,9E9,9E9,9E9,9E9,9E9]],v10,fine,boligrafo2\WObj:=wobj0;
    MoveL [[381.235,-27.245,-24.300+p0],[0.092,0.651,-0.749,0.080],[-1,0,-1,0],[9E9,9E9,9E9,9E9,9E9,9E9]],v10,fine,boligrafo2\WObj:=wobj0;
    MoveL [[380.810,-26.325,-24.300+p0],[0.095,0.625,-0.771,0.077],[-1,0,-1,0],[9E9,9E9,9E9,9E9,9E9,9E9]],v10,fine,boligrafo2\WObj:=wobj0;
    MoveL [[380.180,-25.040,-24.300+p0],[0.095,0.625,-0.771,0.077],[-1,0,-1,0],[9E9,9E9,9E9,9E9,9E9,9E9]],v10,fine,boligrafo2\WObj:=wobj0;
    MoveL [[379.755,-24.040,-24.300+p0],[0.095,0.625,-0.771,0.077],[-1,0,-1,0],[9E9,9E9,9E9,9E9,9E9,9E9]],v10,fine,boligrafo2\WObj:=wobj0;
    MoveL [[379.420,-23.095,-24.300+p0],[0.101,0.631,-0.765,0.083],[-1,0,-1,0],[9E9,9E9,9E9,9E9,9E9,9E9]],v10,fine,boligrafo2\WObj:=wobj0;
    MoveL [[379.090,-21.920,-24.300+p0],[0.101,0.631,-0.765,0.083],[-1,0,-1,0],[9E9,9E9,9E9,9E9,9E9,9E9]],v10,fine,boligrafo2\WObj:=wobj0;
    MoveL [[379.055,-20.880,-24.300+p0],[0.101,0.631,-0.765,0.083],[-1,0,-1,0],[9E9,9E9,9E9,9E9,9E9,9E9]],v10,fine,boligrafo2\WObj:=wobj0;
    MoveL [[379.055,-19.810,-24.300+p0],[0.101,0.631,-0.765,0.083],[-1,0,-1,0],[9E9,9E9,9E9,9E9,9E9,9E9]],v10,fine,boligrafo2\WObj:=wobj0;
    MoveL [[379.245,-18.730,-24.300+p0],[0.095,0.625,-0.771,0.077],[-1,0,-1,0],[9E9,9E9,9E9,9E9,9E9,9E9]],v10,fine,boligrafo2\WObj:=wobj0;
    MoveL [[379.465,-17.645,-24.300+p0],[0.095,0.625,-0.771,0.077],[-1,0,-1,0],[9E9,9E9,9E9,9E9,9E9,9E9]],v10,fine,boligrafo2\WObj:=wobj0;
    MoveL [[379.885,-16.650,-24.300+p0],[0.095,0.625,-0.771,0.077],[-1,0,-1,0],[9E9,9E9,9E9,9E9,9E9,9E9]],v10,fine,boligrafo2\WObj:=wobj0;
    MoveL [[380.560,-15.715,-24.300+p0],[0.104,0.597,-0.792,0.079],[-1,0,-1,0],[9E9,9E9,9E9,9E9,9E9,9E9]],v10,fine,boligrafo2\WObj:=wobj0;
    MoveL [[381.260,-14.825,-24.300+p0],[0.104,0.597,-0.792,0.079],[-1,0,-1,0],[9E9,9E9,9E9,9E9,9E9,9E9]],v10,fine,boligrafo2\WObj:=wobj0;
    MoveL [[381.925,-14.020,-24.300+p0],[0.104,0.604,-0.787,0.079],[-1,0,-1,0],[9E9,9E9,9E9,9E9,9E9,9E9]],v10,fine,boligrafo2\WObj:=wobj0;
    MoveL [[382.885,-13.370,-24.300+p0],[0.101,0.631,-0.765,0.083],[-1,0,-1,0],[9E9,9E9,9E9,9E9,9E9,9E9]],v10,fine,boligrafo2\WObj:=wobj0;
    MoveL [[383.900,-12.670,-24.300+p0],[0.101,0.631,-0.765,0.083],[-1,0,-1,0],[9E9,9E9,9E9,9E9,9E9,9E9]],v10,fine,boligrafo2\WObj:=wobj0;
    MoveL [[384.945,-11.870,-24.300+p0],[0.104,0.597,-0.792,0.079],[-1,0,-1,0],[9E9,9E9,9E9,9E9,9E9,9E9]],v10,fine,boligrafo2\WObj:=wobj0;
    MoveL [[386.005,-11.115,-24.300+p0],[0.104,0.597,-0.792,0.079],[-1,0,-1,0],[9E9,9E9,9E9,9E9,9E9,9E9]],v10,fine,boligrafo2\WObj:=wobj0;
    MoveL [[387.000,-10.245,-24.300+p0],[0.104,0.597,-0.792,0.079],[-1,0,-1,0],[9E9,9E9,9E9,9E9,9E9,9E9]],v10,fine,boligrafo2\WObj:=wobj0;
    MoveL [[387.990,-9.390,-24.300+p0],[0.104,0.597,-0.792,0.079],[-1,0,-1,0],[9E9,9E9,9E9,9E9,9E9,9E9]],v10,fine,boligrafo2\WObj:=wobj0; 
    MoveL [[389.050,-8.580,-24.300+p0],[0.098,0.590,-0.798,0.072],[-1,0,-1,0],[9E9,9E9,9E9,9E9,9E9,9E9]],v10,fine,boligrafo2\WObj:=wobj0; 
    MoveL [[389.865,-7.985,-24.300+p0],[0.098,0.590,-0.798,0.072],[-1,0,-1,0],[9E9,9E9,9E9,9E9,9E9,9E9]],v10,fine,boligrafo2\WObj:=wobj0; 
    MoveL [[390.710,-7.445,-24.300+p0],[0.092,0.584,-0.804,0.067],[-1,0,-1,0],[9E9,9E9,9E9,9E9,9E9,9E9]],v10,fine,boligrafo2\WObj:=wobj0; 
    MoveL [[391.810,-6.795,-24.300+p0],[0.082,0.612,-0.784,0.064],[-1,0,-1,0],[9E9,9E9,9E9,9E9,9E9,9E9]],v10,fine,boligrafo2\WObj:=wobj0; 
    MoveL [[392.860,-6.085,-24.300+p0],[0.082,0.612,-0.784,0.064],[-1,0,-1,0],[9E9,9E9,9E9,9E9,9E9,9E9]],v10,fine,boligrafo2\WObj:=wobj0; 
    MoveL [[393.935,-5.380,-24.300+p0],[0.089,0.619,-0.778,0.070],[-1,0,-1,0],[9E9,9E9,9E9,9E9,9E9,9E9]],v10,fine,boligrafo2\WObj:=wobj0; 
    MoveL [[395.100,-4.825,-24.300+p0],[0.086,0.645,-0.756,0.074],[-1,0,-1,0],[9E9,9E9,9E9,9E9,9E9,9E9]],v10,fine,boligrafo2\WObj:=wobj0; 
    MoveL [[396.245,-4.280,-24.300+p0],[0.086,0.645,-0.756,0.074],[-1,0,-1,0],[9E9,9E9,9E9,9E9,9E9,9E9]],v10,fine,boligrafo2\WObj:=wobj0; 
    MoveL [[397.255,-3.695,-24.300+p0],[0.086,0.645,-0.756,0.074],[-1,0,-1,0],[9E9,9E9,9E9,9E9,9E9,9E9]],v10,fine,boligrafo2\WObj:=wobj0; 
    MoveL [[398.255,-3.065,-24.300+p0],[0.083,0.678,-0.727,0.077],[-1,0,-1,0],[9E9,9E9,9E9,9E9,9E9,9E9]],v10,fine,boligrafo2\WObj:=wobj0; 
    MoveL [[399.000,-2.205,-24.300+p0],[0.077,0.672,-0.733,0.071],[-1,0,-1,0],[9E9,9E9,9E9,9E9,9E9,9E9]],v10,fine,boligrafo2\WObj:=wobj0; 
    MoveL [[399.605,-1.345,-24.300+p0],[0.077,0.672,-0.733,0.071],[-1,0,-1,0],[9E9,9E9,9E9,9E9,9E9,9E9]],v10,fine,boligrafo2\WObj:=wobj0; 
    MoveL [[400.025,-0.200,-24.300+p0],[0.074,0.703,-0.703,0.074],[-1,0,-1,0],[9E9,9E9,9E9,9E9,9E9,9E9]],v10,fine,boligrafo2\WObj:=wobj0; 
    MoveL [[399.960,0.905,-24.300+p0],[0.074,0.703,-0.703,0.074],[-1,0,-1,0],[9E9,9E9,9E9,9E9,9E9,9E9]],v10,fine,boligrafo2\WObj:=wobj0;  
    MoveL [[399.370,1.875,-24.300+p0],[0.068,0.704,-0.704,0.068],[-1,0,-1,0],[9E9,9E9,9E9,9E9,9E9,9E9]],v10,fine,boligrafo2\WObj:=wobj0;  
    MoveL [[398.575,2.910,-24.300+p0],[0.062,0.704,-0.704,0.062],[-1,0,-1,0],[9E9,9E9,9E9,9E9,9E9,9E9]],v10,fine,boligrafo2\WObj:=wobj0;  
    MoveL [[397.840,3.745,-24.300+p0],[0.062,0.704,-0.704,0.062],[-1,0,-1,0],[9E9,9E9,9E9,9E9,9E9,9E9]],v10,fine,boligrafo2\WObj:=wobj0;  
    MoveL [[397.015,4.345,-24.300+p0],[0.065,0.667,-0.740,0.058],[-1,0,-1,0],[9E9,9E9,9E9,9E9,9E9,9E9]],v10,fine,boligrafo2\WObj:=wobj0;  
    MoveL [[396.000,4.955,-24.300+p0],[0.065,0.667,-0.740,0.058],[-1,0,-1,0],[9E9,9E9,9E9,9E9,9E9,9E9]],v10,fine,boligrafo2\WObj:=wobj0;  
    MoveL [[394.955,5.430,-24.300+p0],[0.071,0.672,-0.734,0.065],[-1,0,-1,0],[9E9,9E9,9E9,9E9,9E9,9E9]],v10,fine,boligrafo2\WObj:=wobj0;  
    MoveL [[393.945,5.780,-24.300+p0],[0.065,0.667,-0.740,0.058],[-1,0,-1,0],[9E9,9E9,9E9,9E9,9E9,9E9]],v10,fine,boligrafo2\WObj:=wobj0;  
    MoveL [[392.920,5.660,-24.300+p0],[0.065,0.667,-0.740,0.058],[-1,0,-1,0],[9E9,9E9,9E9,9E9,9E9,9E9]],v10,fine,boligrafo2\WObj:=wobj0;  
    MoveL [[391.855,5.490,-24.300+p0],[0.065,0.667,-0.740,0.058],[-1,0,-1,0],[9E9,9E9,9E9,9E9,9E9,9E9]],v10,fine,boligrafo2\WObj:=wobj0;  
    MoveL [[390.795,5.290,-24.300+p0],[0.065,0.667,-0.740,0.058],[-1,0,-1,0],[9E9,9E9,9E9,9E9,9E9,9E9]],v10,fine,boligrafo2\WObj:=wobj0;  
    MoveL [[389.730,5.265,-24.300+p0],[0.067,0.634,-0.769,0.055],[-1,0,-1,0],[9E9,9E9,9E9,9E9,9E9,9E9]],v10,fine,boligrafo2\WObj:=wobj0;  
    MoveL [[388.550,5.260,-24.300+p0],[0.067,0.634,-0.769,0.055],[-1,0,-1,0],[9E9,9E9,9E9,9E9,9E9,9E9]],v10,fine,boligrafo2\WObj:=wobj0;  
    MoveL [[387.390,5.525,-24.300+p0],[0.067,0.634,-0.769,0.055],[-1,0,-1,0],[9E9,9E9,9E9,9E9,9E9,9E9]],v10,fine,boligrafo2\WObj:=wobj0;  
    MoveL [[386.320,5.645,-24.300+p0],[0.067,0.634,-0.769,0.055],[-1,0,-1,0],[9E9,9E9,9E9,9E9,9E9,9E9]],v10,fine,boligrafo2\WObj:=wobj0;  
    MoveL [[385.300,5.645,-24.300+p0],[0.073,0.640,-0.763,0.062],[-1,0,-1,0],[9E9,9E9,9E9,9E9,9E9,9E9]],v10,fine,boligrafo2\WObj:=wobj0;  
    MoveL [[384.185,5.740,-24.300+p0],[0.073,0.640,-0.763,0.062],[-1,0,-1,0],[9E9,9E9,9E9,9E9,9E9,9E9]],v10,fine,boligrafo2\WObj:=wobj0;  
    MoveL [[383.200,5.955,-24.300+p0],[0.073,0.640,-0.763,0.062],[-1,0,-1,0],[9E9,9E9,9E9,9E9,9E9,9E9]],v10,fine,boligrafo2\WObj:=wobj0;  
    MoveL [[382.660,5.060,-24.300+p0],[0.067,0.634,-0.769,0.055],[-1,0,-1,0],[9E9,9E9,9E9,9E9,9E9,9E9]],v10,fine,boligrafo2\WObj:=wobj0;  
    MoveL [[382.615,4.060,-24.300+p0],[0.067,0.634,-0.769,0.055],[-1,0,-1,0],[9E9,9E9,9E9,9E9,9E9,9E9]],v10,fine,boligrafo2\WObj:=wobj0;  
    MoveL [[383.160,3.185,-24.300+p0],[0.067,0.634,-0.769,0.055],[-1,0,-1,0],[9E9,9E9,9E9,9E9,9E9,9E9]],v10,fine,boligrafo2\WObj:=wobj0;  
    MoveL [[383.710,2.295,-24.300+p0],[0.063,0.586,-0.807,0.046],[-1,0,-1,0],[9E9,9E9,9E9,9E9,9E9,9E9]],v10,fine,boligrafo2\WObj:=wobj0;  
    MoveL [[384.410,1.260,-24.300+p0],[0.063,0.586,-0.807,0.046],[-1,0,-1,0],[9E9,9E9,9E9,9E9,9E9,9E9]],v10,fine,boligrafo2\WObj:=wobj0;  
    MoveL [[385.120,0.490,-24.300+p0],[0.070,0.593,-0.801,0.052],[-1,0,-1,0],[9E9,9E9,9E9,9E9,9E9,9E9]],v10,fine,boligrafo2\WObj:=wobj0;  
    MoveL [[385.900,-0.255,-24.300+p0],[0.067,0.634,-0.769,0.055],[-1,0,-1,0],[9E9,9E9,9E9,9E9,9E9,9E9]],v10,fine,boligrafo2\WObj:=wobj0; 
    MoveL [[386.655,-0.970,-24.300+p0],[0.073,0.640,-0.763,0.062],[-1,0,-1,0],[9E9,9E9,9E9,9E9,9E9,9E9]],v10,fine,boligrafo2\WObj:=wobj0; 
    MoveL [[387.440,-1.660,-24.300+p0],[0.076,0.606,-0.790,0.058],[-1,0,-1,0],[9E9,9E9,9E9,9E9,9E9,9E9]],v10,fine,boligrafo2\WObj:=wobj0; 
    MoveL [[388.380,-2.505,-24.300+p0],[0.076,0.606,-0.790,0.058],[-1,0,-1,0],[9E9,9E9,9E9,9E9,9E9,9E9]],v10,fine,boligrafo2\WObj:=wobj0; 
    MoveL [[389.240,-3.120,-24.300+p0],[0.073,0.640,-0.763,0.062],[-1,0,-1,0],[9E9,9E9,9E9,9E9,9E9,9E9]],v10,fine,boligrafo2\WObj:=wobj0; 
    MoveL [[390.110,-3.660,-24.300+p0],[0.079,0.646,-0.756,0.068],[-1,0,-1,0],[9E9,9E9,9E9,9E9,9E9,9E9]],v10,fine,boligrafo2\WObj:=wobj0; 
    MoveL [[391.035,-4.355,-24.300+p0],[0.082,0.612,-0.784,0.064],[-1,0,-1,0],[9E9,9E9,9E9,9E9,9E9,9E9]],v10,fine,boligrafo2\WObj:=wobj0; 
    MoveL [[391.800,-5.030,-24.300+p0],[0.082,0.612,-0.784,0.064],[-1,0,-1,0],[9E9,9E9,9E9,9E9,9E9,9E9]],v10,fine,boligrafo2\WObj:=wobj0; 
    MoveL [[392.685,-5.905,-24.300+p0],[0.073,0.640,-0.763,0.062],[-1,0,-1,0],[9E9,9E9,9E9,9E9,9E9,9E9]],v10,fine,boligrafo2\WObj:=wobj0; 
    MoveL [[393.335,-6.770,-24.300+p0],[0.073,0.640,-0.763,0.062],[-1,0,-1,0],[9E9,9E9,9E9,9E9,9E9,9E9]],v10,fine,boligrafo2\WObj:=wobj0; 
    MoveL [[393.920,-7.790,-24.300+p0],[0.073,0.640,-0.763,0.062],[-1,0,-1,0],[9E9,9E9,9E9,9E9,9E9,9E9]],v10,fine,boligrafo2\WObj:=wobj0; 
    MoveL [[394.515,-8.865,-24.300+p0],[0.073,0.640,-0.763,0.062],[-1,0,-1,0],[9E9,9E9,9E9,9E9,9E9,9E9]],v10,fine,boligrafo2\WObj:=wobj0; 
    MoveL [[395.145,-9.870,-24.300+p0],[0.073,0.640,-0.763,0.062],[-1,0,-1,0],[9E9,9E9,9E9,9E9,9E9,9E9]],v10,fine,boligrafo2\WObj:=wobj0; 
    MoveL [[395.825,-10.725,-24.300+p0],[0.077,0.672,-0.733,0.071],[-1,0,-1,0],[9E9,9E9,9E9,9E9,9E9,9E9]],v10,fine,boligrafo2\WObj:=wobj0;
    MoveL [[396.415,-11.555,-24.300+p0],[0.083,0.678,-0.727,0.077],[-1,0,-1,0],[9E9,9E9,9E9,9E9,9E9,9E9]],v10,fine,boligrafo2\WObj:=wobj0;
    MoveL [[396.885,-12.700,-24.300+p0],[0.077,0.672,-0.733,0.071],[-1,0,-1,0],[9E9,9E9,9E9,9E9,9E9,9E9]],v10,fine,boligrafo2\WObj:=wobj0;
    MoveL [[397.325,-13.695,-24.300+p0],[0.077,0.672,-0.733,0.071],[-1,0,-1,0],[9E9,9E9,9E9,9E9,9E9,9E9]],v10,fine,boligrafo2\WObj:=wobj0;
    MoveL [[397.745,-14.685,-24.300+p0],[0.083,0.678,-0.727,0.077],[-1,0,-1,0],[9E9,9E9,9E9,9E9,9E9,9E9]],v10,fine,boligrafo2\WObj:=wobj0;
    MoveL [[398.085,-15.670,-24.300+p0],[0.083,0.678,-0.727,0.077],[-1,0,-1,0],[9E9,9E9,9E9,9E9,9E9,9E9]],v10,fine,boligrafo2\WObj:=wobj0;
    MoveL [[398.415,-16.910,-24.300+p0],[0.077,0.672,-0.733,0.071],[-1,0,-1,0],[9E9,9E9,9E9,9E9,9E9,9E9]],v10,fine,boligrafo2\WObj:=wobj0;
    MoveL [[398.595,-18.040,-24.300+p0],[0.074,0.703,-0.703,0.074],[-1,0,-1,0],[9E9,9E9,9E9,9E9,9E9,9E9]],v10,fine,boligrafo2\WObj:=wobj0;
    MoveL [[398.710,-19.260,-24.300+p0],[0.074,0.703,-0.703,0.074],[-1,0,-1,0],[9E9,9E9,9E9,9E9,9E9,9E9]],v10,fine,boligrafo2\WObj:=wobj0;
    MoveL [[398.740,-20.270,-24.300+p0],[0.074,0.703,-0.703,0.074],[-1,0,-1,0],[9E9,9E9,9E9,9E9,9E9,9E9]],v10,fine,boligrafo2\WObj:=wobj0;
    MoveL [[398.775,-21.270,-24.300+p0],[0.074,0.703,-0.703,0.074],[-1,0,-1,0],[9E9,9E9,9E9,9E9,9E9,9E9]],v10,fine,boligrafo2\WObj:=wobj0;
    MoveL [[398.780,-22.270,-24.300+p0],[0.080,0.703,-0.703,0.080],[-1,0,-1,0],[9E9,9E9,9E9,9E9,9E9,9E9]],v10,fine,boligrafo2\WObj:=wobj0;
    MoveL [[398.710,-23.600,-24.300+p0],[0.080,0.703,-0.703,0.080],[-1,0,-1,0],[9E9,9E9,9E9,9E9,9E9,9E9]],v10,fine,boligrafo2\WObj:=wobj0;
    MoveL [[398.535,-24.695,-24.300+p0],[0.080,0.703,-0.703,0.080],[-1,0,-1,0],[9E9,9E9,9E9,9E9,9E9,9E9]],v10,fine,boligrafo2\WObj:=wobj0;
    MoveL [[398.365,-25.820,-24.300+p0],[0.086,0.702,-0.702,0.086],[-1,0,-1,0],[9E9,9E9,9E9,9E9,9E9,9E9]],v10,fine,boligrafo2\WObj:=wobj0;
    MoveL [[398.165,-26.890,-24.300+p0],[0.080,0.703,-0.703,0.080],[-1,0,-1,0],[9E9,9E9,9E9,9E9,9E9,9E9]],v10,fine,boligrafo2\WObj:=wobj0;
    MoveL [[397.895,-27.925,-24.300+p0],[0.080,0.703,-0.703,0.080],[-1,0,-1,0],[9E9,9E9,9E9,9E9,9E9,9E9]],v10,fine,boligrafo2\WObj:=wobj0;
    MoveL [[397.535,-29.095,-24.300+p0],[0.080,0.703,-0.703,0.080],[-1,0,-1,0],[9E9,9E9,9E9,9E9,9E9,9E9]],v10,fine,boligrafo2\WObj:=wobj0;
    MoveL [[397.055,-30.025,-24.300+p0],[0.080,0.703,-0.703,0.080],[-1,0,-1,0],[9E9,9E9,9E9,9E9,9E9,9E9]],v10,fine,boligrafo2\WObj:=wobj0;
    MoveL [[396.520,-30.895,-24.300+p0],[0.080,0.703,-0.703,0.080],[-1,0,-1,0],[9E9,9E9,9E9,9E9,9E9,9E9]],v10,fine,boligrafo2\WObj:=wobj0;
    MoveL [[395.850,-31.905,-24.300+p0],[0.083,0.726,-0.677,0.089],[-1,0,-1,0],[9E9,9E9,9E9,9E9,9E9,9E9]],v10,fine,boligrafo2\WObj:=wobj0;
    MoveL [[395.070,-32.785,-24.300+p0],[0.089,0.725,-0.676,0.095],[-1,0,-1,0],[9E9,9E9,9E9,9E9,9E9,9E9]],v10,fine,boligrafo2\WObj:=wobj0;
    MoveL [[394.530,-33.680,-24.300+p0],[0.089,0.725,-0.676,0.095],[-1,0,-1,0],[9E9,9E9,9E9,9E9,9E9,9E9]],v10,fine,boligrafo2\WObj:=wobj0;
    MoveL [[393.870,-34.450,-24.300+p0],[0.089,0.725,-0.676,0.095],[-1,0,-1,0],[9E9,9E9,9E9,9E9,9E9,9E9]],v10,fine,boligrafo2\WObj:=wobj0;
    MoveL [[393.260,-35.285,-24.300+p0],[0.096,0.718,-0.682,0.101],[-1,0,-1,0],[9E9,9E9,9E9,9E9,9E9,9E9]],v10,fine,boligrafo2\WObj:=wobj0;
    MoveL [[392.475,-35.940,-24.300+p0],[0.102,0.717,-0.681,0.107],[-1,0,-1,0],[9E9,9E9,9E9,9E9,9E9,9E9]],v10,fine,boligrafo2\WObj:=wobj0;
    MoveL [[391.740,-36.645,-24.300+p0],[0.105,0.699,-0.699,0.105],[-1,0,-1,0],[9E9,9E9,9E9,9E9,9E9,9E9]],v10,fine,boligrafo2\WObj:=wobj0;
    MoveL [[390.695,-37.265,-24.300+p0],[0.105,0.699,-0.699,0.105],[-1,0,-1,0],[9E9,9E9,9E9,9E9,9E9,9E9]],v10,fine,boligrafo2\WObj:=wobj0;
    MoveL [[390.695,-37.265,-9.300+p0],[0.105,0.699,-0.699,0.105],[-1,0,-1,0],[9E9,9E9,9E9,9E9,9E9,9E9]],v10,fine,boligrafo2\WObj:=wobj0; 
    MoveL [[381.340,-25.850,-9.300+p0],[0.156,0.678,-0.702,0.150],[-1,0,-1,0],[9E9,9E9,9E9,9E9,9E9,9E9]],v10,fine,boligrafo2\WObj:=wobj0; 
   ! MoveL [[389.810,-37.455,-9.300+p0],[0.098,0.700,-0.700,0.098],[-1,0,-1,0],[9E9,9E9,9E9,9E9,9E9,9E9]],v10,fine,boligrafo2\WObj:=wobj0; 
   ! MoveL [[381.340,-25.870,-9.300+p0],[0.156,0.678,-0.702,0.150],[-1,0,-1,0],[9E9,9E9,9E9,9E9,9E9,9E9]],v10,fine,boligrafo2\WObj:=wobj0; 
    MoveL [[381.340,-25.870,-24.300+p0],[0.156,0.678,-0.702,0.150],[-1,0,-1,0],[9E9,9E9,9E9,9E9,9E9,9E9]],v10,fine,boligrafo2\WObj:=wobj0;
    MoveL [[380.440,-25.205,-24.300+p0],[0.143,0.681,-0.705,0.138],[-1,0,-1,0],[9E9,9E9,9E9,9E9,9E9,9E9]],v10,fine,boligrafo2\WObj:=wobj0;
    MoveL [[379.530,-24.430,-24.300+p0],[0.143,0.681,-0.705,0.138],[-1,0,-1,0],[9E9,9E9,9E9,9E9,9E9,9E9]],v10,fine,boligrafo2\WObj:=wobj0;
    MoveL [[378.525,-23.660,-24.300+p0],[0.143,0.681,-0.705,0.138],[-1,0,-1,0],[9E9,9E9,9E9,9E9,9E9,9E9]],v10,fine,boligrafo2\WObj:=wobj0;
    MoveL [[377.350,-22.865,-24.300+p0],[0.137,0.682,-0.706,0.133],[-1,0,-1,0],[9E9,9E9,9E9,9E9,9E9,9E9]],v10,fine,boligrafo2\WObj:=wobj0;
    MoveL [[376.175,-22.130,-24.300+p0],[0.137,0.682,-0.706,0.133],[-1,0,-1,0],[9E9,9E9,9E9,9E9,9E9,9E9]],v10,fine,boligrafo2\WObj:=wobj0;
    MoveL [[375.010,-21.345,-24.300+p0],[0.137,0.682,-0.706,0.133],[-1,0,-1,0],[9E9,9E9,9E9,9E9,9E9,9E9]],v10,fine,boligrafo2\WObj:=wobj0;
    MoveL [[374.080,-20.630,-24.300+p0],[0.132,0.677,-0.713,0.125],[-1,0,-1,0],[9E9,9E9,9E9,9E9,9E9,9E9]],v10,fine,boligrafo2\WObj:=wobj0;
    MoveL [[373.225,-20.085,-24.300+p0],[0.132,0.677,-0.713,0.125],[-1,0,-1,0],[9E9,9E9,9E9,9E9,9E9,9E9]],v10,fine,boligrafo2\WObj:=wobj0;
    MoveL [[374.425,-19.750,-24.300+p0],[0.126,0.678,-0.714,0.120],[-1,0,-1,0],[9E9,9E9,9E9,9E9,9E9,9E9]],v10,fine,boligrafo2\WObj:=wobj0;
    MoveL [[375.695,-19.565,-24.300+p0],[0.126,0.678,-0.714,0.120],[-1,0,-1,0],[9E9,9E9,9E9,9E9,9E9,9E9]],v10,fine,boligrafo2\WObj:=wobj0;
    MoveL [[376.680,-19.320,-24.300+p0],[0.117,0.697,-0.697,0.117],[-1,0,-1,0],[9E9,9E9,9E9,9E9,9E9,9E9]],v10,fine,boligrafo2\WObj:=wobj0;
    MoveL [[377.765,-19.450,-24.300+p0],[0.117,0.697,-0.697,0.117],[-1,0,-1,0],[9E9,9E9,9E9,9E9,9E9,9E9]],v10,fine,boligrafo2\WObj:=wobj0;
    MoveL [[378.920,-19.620,-24.300+p0],[0.117,0.697,-0.697,0.117],[-1,0,-1,0],[9E9,9E9,9E9,9E9,9E9,9E9]],v10,fine,boligrafo2\WObj:=wobj0;
    MoveL [[379.940,-19.975,-24.300+p0],[0.117,0.697,-0.697,0.117],[-1,0,-1,0],[9E9,9E9,9E9,9E9,9E9,9E9]],v10,fine,boligrafo2\WObj:=wobj0;
    MoveL [[379.940,-19.975,-9.300+p0],[0.117,0.697,-0.697,0.117],[-1,0,-1,0],[9E9,9E9,9E9,9E9,9E9,9E9]],v10,fine,boligrafo2\WObj:=wobj0; 
    MoveL [[398.355,-26.500,-9.300+p0],[0.132,0.677,-0.713,0.125],[-1,0,-1,0],[9E9,9E9,9E9,9E9,9E9,9E9]],v10,fine,boligrafo2\WObj:=wobj0; 
   ! MoveL [[379.940,-19.975,-9.300+p0],[0.117,0.697,-0.697,0.117],[-1,0,-1,0],[9E9,9E9,9E9,9E9,9E9,9E9]],v10,fine,boligrafo2\WObj:=wobj0; 
   ! MoveL [[398.315,-26.465,-9.300+p0],[0.126,0.678,-0.714,0.120],[-1,0,-1,0],[9E9,9E9,9E9,9E9,9E9,9E9]],v10,fine,boligrafo2\WObj:=wobj0; 
    MoveL [[398.315,-26.465,-24.300+p0],[0.126,0.678,-0.714,0.120],[-1,0,-1,0],[9E9,9E9,9E9,9E9,9E9,9E9]],v10,fine,boligrafo2\WObj:=wobj0;
    MoveL [[398.900,-25.410,-24.300+p0],[0.117,0.697,-0.697,0.117],[-1,0,-1,0],[9E9,9E9,9E9,9E9,9E9,9E9]],v10,fine,boligrafo2\WObj:=wobj0;
    MoveL [[399.865,-24.650,-24.300+p0],[0.117,0.697,-0.697,0.117],[-1,0,-1,0],[9E9,9E9,9E9,9E9,9E9,9E9]],v10,fine,boligrafo2\WObj:=wobj0;
    MoveL [[400.680,-23.910,-24.300+p0],[0.111,0.698,-0.698,0.111],[-1,0,-1,0],[9E9,9E9,9E9,9E9,9E9,9E9]],v10,fine,boligrafo2\WObj:=wobj0;
    MoveL [[399.620,-23.525,-24.300+p0],[0.110,0.733,-0.660,0.123],[-1,0,-1,0],[9E9,9E9,9E9,9E9,9E9,9E9]],v10,fine,boligrafo2\WObj:=wobj0;
    MoveL [[398.395,-23.425,-24.300+p0],[0.114,0.715,-0.679,0.120],[-1,0,-1,0],[9E9,9E9,9E9,9E9,9E9,9E9]],v10,fine,boligrafo2\WObj:=wobj0;
    MoveL [[398.395,-23.425,-9.300+p0],[0.114,0.715,-0.679,0.120],[-1,0,-1,0],[9E9,9E9,9E9,9E9,9E9,9E9]],v10,fine,boligrafo2\WObj:=wobj0; 
    MoveL [[387.400,-30.705,-9.300+p0],[0.138,0.645,-0.742,0.120],[-1,0,-1,0],[9E9,9E9,9E9,9E9,9E9,9E9]],v10,fine,boligrafo2\WObj:=wobj0; 
   ! MoveL [[398.365,-24.115,-9.300+p0],[0.108,0.716,-0.680,0.113],[-1,0,-1,0],[9E9,9E9,9E9,9E9,9E9,9E9]],v10,fine,boligrafo2\WObj:=wobj0; 
   ! MoveL [[387.400,-30.765,-9.300+p0],[0.138,0.645,-0.742,0.120],[-1,0,-1,0],[9E9,9E9,9E9,9E9,9E9,9E9]],v10,fine,boligrafo2\WObj:=wobj0; 
    MoveL [[387.400,-30.765,-24.300+p0],[0.138,0.645,-0.742,0.120],[-1,0,-1,0],[9E9,9E9,9E9,9E9,9E9,9E9]],v10,fine,boligrafo2\WObj:=wobj0;
    MoveL [[387.915,-29.835,-24.300+p0],[0.123,0.660,-0.733,0.110],[-1,0,-1,0],[9E9,9E9,9E9,9E9,9E9,9E9]],v10,fine,boligrafo2\WObj:=wobj0;
    MoveL [[386.930,-29.400,-24.300+p0],[0.113,0.680,-0.716,0.108],[-1,0,-1,0],[9E9,9E9,9E9,9E9,9E9,9E9]],v10,fine,boligrafo2\WObj:=wobj0;
    MoveL [[386.935,-30.405,-24.300+p0],[0.116,0.661,-0.734,0.105],[-1,0,-1,0],[9E9,9E9,9E9,9E9,9E9,9E9]],v10,fine,boligrafo2\WObj:=wobj0;
    MoveL [[387.925,-30.140,-24.300+p0],[0.120,0.679,-0.715,0.114],[-1,0,-1,0],[9E9,9E9,9E9,9E9,9E9,9E9]],v10,fine,boligrafo2\WObj:=wobj0;


    ENDPROC

    PROC main()
        !Se asocia la variable int_move_stop con la interrupción trap_move_stop,
        !es decir, cuando la variable se active, se lanza la interrupción.
        !Esta señal, se activa al activar la entrada digital di_8 con el comando ISignalDi
        CONNECT int_move_stop WITH trap_move_stop;
        !Asigna a la variable int_move_stop el valor de la entrada digital di_8
        ISignalDI Entrada_8, 1, int_move_stop;
        
        track_1;
    ENDPROC
!Interrupción

TRAP trap_move_stop
       !Se para el robot
       StopMove;
       !Se espera a que la entrada di_8 se ponga de nuevo a cero
       WaitDi Entrada_8, 0;
       !Se reanuda el movimiento del robot
       StartMove;
ENDTRAP       
ENDMODULE